docs/img/icons/social-2.svg

<svg width="33" height="32" viewBox="0 0 33 32" fill="none" xmlns="http://www.w3.org/2000/svg">
<path fill-rule="evenodd" clip-rule="evenodd" d="M32.7634 16C32.7634 24.8366 25.4291 32 16.3817 32C7.33434 32 0 24.8366 0 16C0 7.16344 7.33434 0 16.3817 0C25.4291 0 32.7634 7.16344 32.7634 16ZM25.0424 11.2241L25.0478 11.2452C25.5888 13.6589 25.5888 16.1066 25.0477 18.5202L25.0424 18.5413C24.6047 20.2695 22.6313 22.1241 20.8191 22.5099L20.7987 22.5141C19.3334 22.7871 17.8573 22.9234 16.3818 22.9234C15.9476 22.9234 15.5133 22.9101 15.0792 22.8864L13.0779 24.9182C12.5825 25.4222 11.7112 25.0792 11.7112 24.3809V22.4517C9.96665 21.9651 8.14028 20.1957 7.72063 18.5413L7.71577 18.5201C7.17466 16.1066 7.17466 13.6588 7.71577 11.2452L7.72063 11.2241C8.15891 9.49594 10.1323 7.64131 11.9439 7.2555L11.965 7.25138C14.8955 6.70525 17.8676 6.70525 20.7987 7.25138L20.8191 7.2555C22.6314 7.64131 24.6047 9.49581 25.0424 11.2241ZM20.4829 20.9585C21.6734 20.6995 23.1717 19.2977 23.464 18.1702C23.9516 15.9886 23.9516 13.7769 23.464 11.5953C23.1718 10.4677 21.6741 9.06594 20.483 8.80694C17.7617 8.30131 15.0019 8.30131 12.2799 8.80694C11.0894 9.06594 9.59167 10.4677 9.29891 11.5953C8.81187 13.7769 8.81187 15.9885 9.29891 18.1701C9.59167 19.2977 11.0894 20.6994 12.2799 20.9584L12.2808 20.9586C12.3339 20.9689 12.3725 21.0137 12.3725 21.0665V24.2625C12.3725 24.4222 12.5722 24.501 12.6858 24.3852L14.24 22.8272L15.7013 21.3621C15.723 21.3403 15.753 21.3284 15.7842 21.3292C17.3535 21.3717 18.9244 21.248 20.4829 20.9585ZM18.7964 19.5967L18.7963 19.5966C18.6766 19.5644 18.5614 19.5334 18.4519 19.4891C16.7733 18.8089 15.2286 17.9314 14.005 16.5863C13.3092 15.8215 12.7645 14.9579 12.3042 14.044C12.1083 13.6553 11.9401 13.2529 11.7722 12.8512L11.7722 12.8512L11.7143 12.7128C11.5433 12.3048 11.7952 11.8833 12.0604 11.5758C12.3092 11.2873 12.6295 11.0665 12.9763 10.9037C13.247 10.7767 13.514 10.85 13.7117 11.074C14.1391 11.5585 14.5317 12.0678 14.8495 12.6294C15.045 12.9748 14.9914 13.3971 14.637 13.6321C14.568 13.6779 14.504 13.7301 14.44 13.7822L14.44 13.7822L14.44 13.7822L14.4399 13.7822L14.3923 13.8209C14.3219 13.8775 14.2557 13.9346 14.2075 14.0111C14.1193 14.1512 14.1151 14.3165 14.1718 14.4688C14.6087 15.6414 15.345 16.5533 16.5535 17.0445L16.6052 17.0656C16.7817 17.1384 16.9609 17.2122 17.1639 17.1891C17.4052 17.1616 17.541 16.9845 17.6776 16.8064C17.7521 16.7092 17.8269 16.6117 17.9192 16.538C18.1747 16.334 18.5013 16.3313 18.7766 16.5014C19.0519 16.6716 19.3188 16.8543 19.5841 17.039L19.6387 17.0769C19.8807 17.2451 20.1205 17.4118 20.3439 17.6041C20.5749 17.8028 20.6544 18.0634 20.5243 18.333C20.2863 18.8268 19.9398 19.2375 19.4401 19.4997C19.3436 19.5502 19.2344 19.5774 19.1241 19.6048C19.073 19.6175 19.0217 19.6302 18.9713 19.6454C18.9121 19.6278 18.8537 19.6121 18.7964 19.5967ZM20.7715 13.9423C20.3851 11.8223 18.5817 10.3992 16.3863 10.3391L16.3728 10.339L16.3489 10.3387H16.3489H16.3489C16.3188 10.3382 16.2888 10.3377 16.259 10.3395C16.1034 10.3477 15.9654 10.4748 15.9945 10.6345C16.0273 10.8144 16.2125 10.8326 16.3651 10.8476L16.3915 10.8503C16.4688 10.8582 16.5463 10.8647 16.6238 10.8713L16.6238 10.8713C16.7952 10.8857 16.9666 10.9002 17.1353 10.9296C18.7633 11.2132 20.0674 12.5347 20.2946 14.1322C20.329 14.3735 20.3459 14.6174 20.3628 14.8611V14.8611L20.3628 14.8612C20.3671 14.9229 20.3714 14.9847 20.376 15.0463C20.3875 15.2004 20.4667 15.3443 20.6426 15.3422C20.813 15.3402 20.9024 15.1937 20.8901 15.0395L20.8794 14.9031V14.9031C20.8543 14.5814 20.8292 14.2588 20.7715 13.9423ZM19.722 14.5708C19.7214 14.5765 19.7208 14.5831 19.7202 14.5906C19.7174 14.6223 19.7133 14.6685 19.7012 14.7127C19.643 14.9279 19.3087 14.9549 19.2319 14.7377C19.209 14.6732 19.2056 14.5999 19.2055 14.5305C19.2047 14.0764 19.1037 13.6226 18.8692 13.2274C18.6281 12.8212 18.2598 12.4799 17.8279 12.2732C17.5667 12.1484 17.2843 12.0707 16.998 12.0245C16.9203 12.0119 16.8422 12.0025 16.764 11.993L16.7639 11.993L16.7638 11.993C16.7161 11.9872 16.6684 11.9814 16.6207 11.9749C16.4684 11.9542 16.387 11.8594 16.3943 11.7128C16.401 11.5754 16.5038 11.4765 16.6571 11.4851C17.1609 11.5129 17.6476 11.6194 18.0956 11.8511C19.0065 12.3222 19.5269 13.0659 19.6788 14.0589C19.6812 14.0751 19.6842 14.0912 19.6872 14.1073L19.6872 14.1074C19.6926 14.1361 19.6979 14.1647 19.7002 14.1936C19.7063 14.2734 19.7108 14.3533 19.7161 14.4462V14.4463L19.7229 14.5637C19.7226 14.5658 19.7223 14.5682 19.722 14.5708ZM18.0563 14.2512C18.0753 14.4156 18.1736 14.515 18.3572 14.5117C18.4408 14.5062 18.5266 14.4495 18.5536 14.3366C18.5688 14.2722 18.5624 14.2014 18.5564 14.1339L18.5559 14.1284C18.469 13.1497 17.8607 12.7198 17.0095 12.6598C16.8732 12.6502 16.752 12.7452 16.7312 12.8669C16.7082 13.0006 16.7889 13.1161 16.9349 13.151C16.9978 13.1661 17.0619 13.1718 17.1261 13.1775C17.1991 13.184 17.2723 13.1905 17.3439 13.2107C17.45 13.2407 17.5513 13.287 17.6406 13.3506C17.8299 13.4853 17.9495 13.6889 18.0047 13.9087C18.0289 14.0053 18.04 14.1054 18.0511 14.2049C18.0528 14.2203 18.0545 14.2358 18.0563 14.2512Z" fill="#237D26"/>
</svg>

<svg width="33" height="32" fill="none" xmlns="http://www.w3.org/2000/svg"><path fill-rule="evenodd" clip-rule="evenodd" d="M32.763 16c0 8.837-7.334 16-16.381 16C7.334 32 0 24.837 0 16S7.334 0 16.382 0c9.047 0 16.381 7.163 16.381 16zm-7.72-4.776l.005.021a16.506 16.506 0 010 7.275l-.006.021c-.437 1.729-2.41 3.583-4.223 3.969l-.02.004a24.096 24.096 0 01-5.72.372l-2.001 2.032c-.495.504-1.367.161-1.367-.537v-1.93c-1.744-.486-3.57-2.255-3.99-3.91l-.005-.02a16.504 16.504 0 010-7.276l.005-.02c.438-1.73 2.411-3.584 4.223-3.97l.021-.004a24.02 24.02 0 018.834 0l.02.004c1.812.386 3.786 2.24 4.223 3.97zm-4.56 9.735c1.19-.26 2.689-1.661 2.981-2.789a14.96 14.96 0 000-6.575c-.292-1.127-1.79-2.53-2.981-2.788a22.37 22.37 0 00-8.203 0c-1.19.259-2.688 1.66-2.981 2.788a14.975 14.975 0 000 6.575c.293 1.128 1.79 2.53 2.98 2.788h.002c.053.01.091.056.091.109v3.195c0 .16.2.239.314.123l1.554-1.558 1.461-1.465a.113.113 0 01.083-.033 22.38 22.38 0 004.699-.37zm-1.687-1.362a2.976 2.976 0 01-.344-.108c-1.679-.68-3.223-1.558-4.447-2.903-.696-.764-1.24-1.628-1.7-2.542a18.427 18.427 0 01-.533-1.193l-.058-.138c-.17-.408.081-.83.346-1.137.25-.289.57-.51.916-.672.271-.127.538-.054.736.17.427.485.82.994 1.138 1.555.195.346.141.768-.213 1.003-.069.046-.133.098-.197.15l-.048.039a.793.793 0 00-.184.19.51.51 0 00-.036.458c.437 1.172 1.173 2.084 2.381 2.575l.052.022c.177.072.356.146.559.123.241-.027.377-.204.514-.383a1.51 1.51 0 01.241-.268c.256-.204.582-.207.858-.037.275.17.542.353.807.538l.055.038c.242.168.482.335.705.527.23.199.31.46.18.729-.238.494-.584.905-1.084 1.167-.096.05-.206.077-.316.105a2.873 2.873 0 00-.153.04 6.825 6.825 0 00-.175-.048zm1.976-5.655c-.387-2.12-2.19-3.543-4.386-3.603h-.127c-.156.009-.294.136-.264.295.032.18.217.199.37.214l.027.002c.077.008.154.015.232.021.171.015.343.03.511.059 1.628.283 2.932 1.605 3.16 3.202.034.242.05.485.068.73l.013.184c.011.154.09.298.267.296.17-.002.26-.148.247-.303l-.01-.136c-.026-.322-.05-.644-.108-.96zm-1.05.629a.697.697 0 01-.02.142c-.059.215-.393.242-.47.025a.63.63 0 01-.026-.207 2.55 2.55 0 00-.337-1.304 2.461 2.461 0 00-1.041-.954 3.048 3.048 0 00-.83-.248 4.692 4.692 0 00-.234-.032l-.143-.018c-.153-.02-.234-.116-.227-.262.007-.138.11-.236.263-.228.504.028.99.134 1.439.366.91.471 1.43 1.215 1.583 2.208l.008.048c.006.03.01.058.013.087l.016.252.007.118a.27.27 0 00-.001.007zm-1.666-.32c.02.165.118.264.301.26a.217.217 0 00.197-.174c.015-.065.008-.136.002-.203v-.006c-.087-.978-.695-1.408-1.547-1.468a.263.263 0 00-.278.207c-.023.134.058.25.204.284.063.015.127.02.191.027a.962.962 0 01.514.173c.19.134.31.338.365.558.024.096.035.196.046.296l.005.046z" fill="#237D26"/></svg>
